X: 4
T: The Ships In Full Sail
R: jig
M: 6/8
L: 1/8
K: Amaj
c | EAA cAA | eAA cAA | fga ecA | BcB BAF |EAA cAA |eAA cAA | fga ecA | BcB A2 :|e | eaa c'aa | baa c'aa | eaa c'aa | bc'b baf | eaa c'aa | bab c'af |efe ded | cAA A2 :|]


Tune 261	Setting 10591

